X: 100413
T: SANDY McGAFF -- Jig
R: jig
B: K\"ohler's Violin Repository, v.3, 1885 p.266 #2
F: http://www.archive.org/details/klersviolinrepos03rugg
Z: 2012 John Chambers <jc:trillian.mit.edu>
N: The 2nd part has a final repeat, but no initial repeat.
M: 6/8
L: 1/8
K: Em
|:\
vE3- EFG | B3- B^cd | E3- E(FG) | BAG FED |\
E3- EFG | B2^c d2e | fgf efe | d^cB AGF :|
|:\
(v.E2.e) (.e2.g) | fe^d e3 | (.E2.e) (.e2.g) | fga gfe |\
DFA (.d2.e) | fe^c d3 | DFA (.d2.B) | ABG FED :|

%%sep 2 1 500

